X:1
T:Title
%%score { 1 | 2 }
L:1/8
Q:1/4=100
M:4/4
K:D
V:1 treble nm="Grand Piano"
V:2 bass 
V:1
 [FA]3 [FA] [GB]2 [FA]2 | F3 F G2 F2 | D4 E2 [CE]2 | [DF]6 z2 | [FA]3 [FA] [GB]2 [FA]2 | %5
w: Mrs.~C.~H.~Morris * * *|||||
 F3 F G2 F2 | E4 ^G2 G2 | [CA]6 z2 | [EG]3 [^DF] [EG]2 [FA]2 | [CGB]2 [CGA]2 [DFA]2 [A,DF]2 | %10
w: |||||
 [Fd]4 A2 F2 | [CE]6 z2 | F3 F B2 A2 | [Ec]3 [Ec] [Dd]2 [DG]2 | [DF]4 [CF]2 [CE]2 |[M:3/4] [A,D]6 | %16
w: ||||||
[M:1/4] [FA]2 |[M:4/4] [FA] [FA]3 [FA]3 [FA] | [GB]2 [FA]4 [DF]2 | [FA]2 [EG]4 [CGB]2 | %20
w: ||||
 [GB]2 [FA]4 [FA]2 | B B3 c2 d2 | [Fd]2 [DFA]4 [B,EG]2 | [DF]2 [DF]4 [CE]2 | D6 D2 | F F3 F3 F | %26
w: ||||||
 G2 F4 D2 | [DF]2 [CE]4 [EG]2 | [EG]2 [DF]4 [FA]2 | B B3 c2 d2 | [Fd]2 [DFA]4 [B,EG]2 | %31
w: |||||
 [A,DF]2 [A,DF]4[K:bass] [G,CE]2 |[M:3/4] [F,D]6 |] %33
w: ||
V:2
 [D,D]3 [D,D] [D,D]2 [D,D]2 | [D,A,D]3 [D,A,D] [D,B,E]2 [D,A,D]2 | [F,A,]4 [A,C]2 [A,,A,]2 | %3
 [D,A,]6 z2 | [D,D]3 [D,D] [D,D]2 [D,D]2 | [D,A,D]3 [D,A,D] [D,B,D]2 [D,A,D]2 | %6
 [E,A,C]4 [E,B,D]2 [E,B,D]2 | [A,,A,]6 z2 | [A,,A,]3 [A,,A,] [A,,A,]2 [A,,A,]2 | %9
 A,,2 A,,2 D,2 D,2 | [D,A,]4 [F,D]2 [D,A,D]2 | [A,,A,]6 z2 | [D,A,D]3 [D,A,D] [D,G,D]2 [D,F,D]2 | %13
 [A,,A,]3 [G,,G,] [B,,F,]2 [^A,,G,]2 | [A,,A,]4 [A,,A,]2 [A,,G,]2 |[M:3/4] [D,F,]6 | %16
[M:1/4] [D,D]2 |[M:4/4] [D,D] [D,D]3 [D,D]3 [D,D] | [D,D]2 [D,D]4 [D,A,]2 | %19
 [A,,A,]2 [A,,A,]4 A,,2 | [D,D]2 [D,D]4 [D,D]2 | [G,DG] [G,DG]3 [G,CG]2 [G,B,G]2 | %22
 [D,A,]2 D,4 G,,2 | [A,,A,]2 [A,,A,]4 [A,,G,]2 | [D,F,]6 [D,F,]2 | %25
 [D,A,D] [D,A,D]3 [D,A,D]3 [D,A,D] | [D,B,D]2 [D,A,D]4 [D,F,]2 | [A,,A,]2 [A,,A,]4 [A,,A,]2 | %28
 [D,A,]2 [D,A,]4 [D,D]2 | [G,DG] [G,DG]3 [G,CG]2 [G,B,G]2 | [D,A,]2 D,4 G,,2 | A,,2 A,,4 A,,2 | %32
[M:3/4] D,6 |] %33

